X:220
T:Sand’s Reel,aka TS.220
M:C|
L:1/8
Q:1/2=90
S:Thomas Sands’ MS,1810,Lincolnshire
R:reel
C:untitled in MS
C:Labelled “2nd” on MS page
N:I have taken the liberty of naming this untitled tune after Mr Sands
O:England;Lincolnshire
Z:vmp.Ruairidh Greig, 2011
K:Gm
c|”^No key sig. in MS”B/c/d Gd BG dB|A/B/c Fc AF cA|B/c/d Gd BG dB|^F/G/A DFG2G:|
|:A|B2Bf B/B/B dB|cdcB ABcA|Ggga bag^f|g/a/b a^f g3a|
g/a/b =fd Bdfd|cdcB ABcA|Bdg^f gBce|dBcAG2G:|]

